Catalina-light/actions/22/speed-low.svg

<?xml version="1.0" encoding="UTF-8" standalone="no"?>
<svg
   xmlns:dc="http://purl.org/dc/elements/1.1/"
   xmlns:cc="http://creativecommons.org/ns#"
   xmlns:rdf="http://www.w3.org/1999/02/22-rdf-syntax-ns#"
   xmlns:svg="http://www.w3.org/2000/svg"
   xmlns="http://www.w3.org/2000/svg"
   xmlns:sodipodi="http://sodipodi.sourceforge.net/DTD/sodipodi-0.dtd"
   xmlns:inkscape="http://www.inkscape.org/namespaces/inkscape"
   version="1.1"
   width="22"
   height="22"
   viewBox="0 0 22 22"
   id="svg2"
   inkscape:version="0.91 r13725"
   sodipodi:docname="speed-low.svg">
  <metadata
     id="metadata10">
    <rdf:RDF>
      <cc:Work
         rdf:about="">
        <dc:format>image/svg+xml</dc:format>
        <dc:type
           rdf:resource="http://purl.org/dc/dcmitype/StillImage" />
        <dc:title></dc:title>
      </cc:Work>
    </rdf:RDF>
  </metadata>
  <defs
     id="defs8">
    <style
       id="current-color-scheme"
       type="text/css">
      .ColorScheme-Text {
        color:#4d4d4d;
      }
      </style>
  </defs>
  <sodipodi:namedview
     pagecolor="#ffffff"
     bordercolor="#666666"
     borderopacity="1"
     objecttolerance="10"
     gridtolerance="10"
     guidetolerance="10"
     inkscape:pageopacity="0"
     inkscape:pageshadow="2"
     inkscape:window-width="640"
     inkscape:window-height="480"
     id="namedview6"
     showgrid="false"
     inkscape:zoom="27.458333"
     inkscape:cx="5.5174507"
     inkscape:cy="12"
     inkscape:current-layer="svg2" />
  <path
     d="m 11,14.458489 a 2.4,2.4 0 0 0 2.4,-2.399999 c 0,-0.896 -0.488,-1.680001 -1.2,-2.0880006 L 4.4319996,5.47449 l 4.4240002,7.664 C 9.2559999,13.922489 10.064,14.458489 11,14.458489 M 11,4.05849 c -1.4480002,0 -2.8000002,0.3999999 -3.9760002,1.0559999 L 8.7039999,6.08249 C 9.3999999,5.81049 10.2,5.65849 11,5.65849 a 6.4000001,6.4000001 0 0 1 6.4,6.4 c 0,1.767999 -0.712,3.368 -1.872,4.519999 l -0.008,0 c -0.312,0.312 -0.312,0.816 0,1.128001 0.312,0.311999 0.824,0.311999 1.136,0.008 l 0,0 C 18.104,16.26649 19,14.266489 19,12.05849 a 8.0000001,8.0000001 0 0 0 -8,-8 m -8,8 c 0,2.207999 0.896,4.208 2.3439999,5.655999 l 0,0 c 0.3119999,0.304 0.816,0.304 1.1279999,-0.008 0.3120001,-0.312 0.3120001,-0.816 0,-1.128001 l 0,0 c -1.16,-1.159999 -1.872,-2.752 -1.872,-4.519999 0,-0.800001 0.152,-1.6 0.432,-2.3200002 L 4.064,8.05849 C 3.4,9.2584898 3,10.60249 3,12.05849 Z"
     id="path4"
     style="fill:#4d4d4d;fill-opacity:1"
     inkscape:connector-curvature="0" />
</svg>

<svg width="22" height="22" version="1.1" viewBox="0 0 22 22" xmlns="http://www.w3.org/2000/svg">
<defs>
<style id="current-color-scheme" type="text/css">.ColorScheme-Text {
        color:#363636;
      }</style>
</defs>
<path d="m11 14.458a2.4 2.4 0 0 0 2.4-2.4c0-0.896-0.488-1.68-1.2-2.088l-7.768-4.496 4.424 7.664c0.4 0.784 1.208 1.32 2.144 1.32m0-10.4c-1.448 0-2.8 0.4-3.976 1.056l1.68 0.968c0.696-0.272 1.496-0.424 2.296-0.424a6.4 6.4 0 0 1 6.4 6.4c0 1.768-0.712 3.368-1.872 4.52h-8e-3c-0.312 0.312-0.312 0.816 0 1.128 0.312 0.312 0.824 0.312 1.136 8e-3 1.448-1.448 2.344-3.448 2.344-5.656a8 8 0 0 0-8-8m-8 8c0 2.208 0.896 4.208 2.344 5.656 0.312 0.304 0.816 0.304 1.128-8e-3 0.312-0.312 0.312-0.816 0-1.128-1.16-1.16-1.872-2.752-1.872-4.52 0-0.8 0.152-1.6 0.432-2.32l-0.968-1.68c-0.664 1.2-1.064 2.544-1.064 4z" fill="#363636"/>
</svg>
